X: 41
T:Peggie's Wedding
M:6/8
L:1/8
R:Jig
K:C % no sharps or flats
G|"C"c>dc c2 c|"Am"c>eg g>ec|"C"c>dc c2 c|"G"B>cd d>BG|"C"c>dc c2 c|!
c>eg g>ec|"F"f>af "C"e>ge|"G7"B>cd d>BG||"C"c>dc g2 c|"Am"e2 c g2 c|"C"c
>dc g2 c|!
"G"B>cd d>BG|"C"c>dc g>ec|"Am"e>dc g>ec|"F"f>af "C"e>ge|1"G7"B>cd d>BG:|
|2"G7"B>cd c2||
% <A name="D1X042">
